!!!ONB: MCCC : IJH0427_01 : Extracted Monophonic Melody
!!!COM: Haydn, Joseph
!!!OPR: String Quartet in D major
!!!OMV: 1
!!!SCT: Hob.III:30 ; Op.17 No.6
!!!ODT: 1771///
**kern
*thru
*k[f#c#]
*D:
*clefG
*M6/8
*MM132
8a
=1
8f#
8d
8a
8g
8e
8a
=2
8f#
8d
8b
4a
8dd
=3
8dd
8cc#
8b
8a
8d
8b
=4
4a
8g
4f#
8aa
=5
8ff#
8dd
8aa
8gg
8ee
8aa
=6
8ff#
8dd
8bb
4aa
8ddd
=7
8ddd
8ccc#
8bb
8aa
8dd
8bb
=8
8bb
8aa
8gg
8ff#
16gg
16aa
16bb
16ccc#
=9
8ddd
8ccc#
8bb
8aa
8dd
8bb
=10
8bb
8aa
8gg
8ff#
16gg
16aa
16bb
16ccc#
=11
4.ddd
4.g#
=12
2.a
=13
2.a[
=14
8a]
8a
8a
4a
8a
=15
8f#
8d
8a
8g
8e
8a
=16
8f#
8d
8b
4a
8r
=17
2r
8r
8bb
=18
8aa
8ff#
8bb
4aa
8r
=19
4r
8bb
8aa
4r
=20
4r
8bb
8aa
8r
8aa
=21
8aa
8gg
8ff#
8ee
8ee
8ee
=22
8ee
8ff#
8ee
8ee
8aa
8aa
=23
8aa
8gg
8ff#
8ff#
8ee
8dd
=24
2dd
8aa
8aa
=25
8aa
8gg
8ff#
8ee
8ee
8ee
=26
8ee
8ff#
8ee
4.ee[
=27
8ee]
8ff#
8ee
4.ee[
=28
8ee]
8ff#
8ee
4.ee[
=29
8ee]
8ff#
8ee
4.ee
=30
2ccc
8bb
8aa
=31
8gg#
8eee
8eee
4.eee
=32
2ccc
8bb
8aa
=33
8gg#
8ee
8ee
4.ee
=34
2ccc
8bb
8aa
=35
8gg#
8eee
8eee
4.eee
=36
2ccc
8bb
8aa
=37
2gg#
8ee
8ff
=38
8dd#
8ee
8b
8dd
8cc
8a
=39
8g#
8a
8e
8f
8e
8d#
=40
4.e
8f
8e
8d#
=41
4.e
8f
8e
8d#
=42
4.e
8f
8e
8d#
=43
2.e[
=44
8e]
8g
8f
8f
8a
8g
=45
2.g[
=46
8g]
8cc
8cc
8cc
8b
8a
=47
2.g[
=48
8g]
8a
8a
8a
8g
8f
=49
4.e
8f
8e
8f
=50
4g
2r
=51
4.e
8d
8e
8f
=52
4.e
4.d
=53
4.c
8B
8c
8d
=54
4.c
4.B
=55
8A
8G#
8A
8c
8B
8A
=56
4G#
4.r
8ee
=57
8cc#
8a
8ee
8dd
8b
8ee
=58
8cc#
8a
8ff#
4ee
8c#
=59
8d
8ff#
8ff#
8g#
8ddd
8ddd
=60
8a
8ccc#
8ccc#
8dd
8fff#
8fff#
=61
4.ee
4.bb
=62
4aa
4.r
8ee
=63
8ee
8dd
8cc#
8b
8b
8b
=64
8b
8cc#
8b
8b
8ee
8ee
=65
8ee
8dd
8cc#
8cc#
8b
8a
=66
2a
8ee
8ee
=67
8ee
8dd
8cc#
8b
8b
8b
=68
8b
8cc#
8b
8b
8ee
8ee
=69
8ee
8dd
8cc#
8cc#
8b
8a
=70
2a
8b
8g#
=71
2a
8dd
8b
=72
8a
8ee
8cc#
8a
8e
8c#
=73
4A
4.r
8ee
=74
8cc#
8a
8ee
8dd
8b
8ee
=75
8cc#
8a
8ff#
4ee
8ff#
=76
8gg
8ee
8dd
8cc#
8ee
8b
=77
8a#
8cc#
8g
4f#
8ee
=78
8dd
8b
8ff#
8ee
8cc#
8ff#
=79
8dd
8b
8gg
4ff#
8gg#
=80
8aa
8ff#
8ee
8dd#
8ff#
8cc#
=81
8b#
8dd#
8a
4g#
8ff#
=82
8ee
8aa
8gg#
4.gg#[
=83
8gg#]
8aa
8gg#
4.gg#[
=84
8gg#]
8aa
8gg#
4.gg#[
=85
8gg#]
8ccc#
8bb
4.bb[
=86
8bb]
8bb
8aa
4.aa[
=87
8aa]
8aa
8gg#
4.gg#[
=88
8gg#]
8gg#
8ff#
4.ff#[
=89
8ff#]
8gg
8ff#
4.ff#[
=90
8ff#]
8gg
8ff#
4.ff#[
=91
8ff#]
8gg
8ff#
4.ff#[
=92
8ff#]
8gg
8ff#
4.ff#[
=93
8ff#]
8ee#
8ddd
8ddd
8ccc#
8bb
=94
8aa#
8ccc#
8ff#
8gg
8ff#
8ee#
=95
8ff#
8cc#
8ee
8dd
8cc#
8b
=96
8a#
8cc#
8f#
8g
8f#
8e
=97
8d
8ff#
8ff#
8e
8gg
8gg
=98
4.f#
4.cc#
=99
8bb
8ff#
8dd
8gg
8ee
8cc#
=100
4.f#
4.cc#
=101
4b
4.r
8ff#
=102
8dd
8b
8ff#
8ee
8cc#
8ff#
=103
8dd
8b
8gg
4ff#
8r
=104
8dd#
8b
8ccc
8bb
4r
=105
8ee
8b
8ccc
8bb
4r
=106
8cc#
8a
8bb
8aa
4r
=107
8dd
8a
8bb
8aa
4r
=108
8cc#
8a
8bb
8aa
4r
=109
8dd
8a
8bb-
8aa
4r
=110
8cc#
8a
8bb-
8aa
4r
=111
8ff
8aa
8ee
8ff
8aa
8dd
=112
8cc#
8ee
8a
8b-
8a
8g#
=113
8a
8b-
8e
8f
8a
8d
=114
8c#
8e
8A
8B-
8A
8G#
=115
8A
8c#
8e
8a
8cc#
8ee
=116
4aa
4.r
8a
=117
8f#
8d
8a
8g
8e
8a
=118
8f#
8d
8b
4a
8dd
=119
8dd
8cc#
8b
8a
8d
8b
=120
4a
8g
4f#
8aa
=121
8ff#
8dd
8aa
8gg
8ee
8aa
=122
8ff#
8dd
8bb
4aa
8ddd
=123
8ddd
8ccc#
8bb
8aa
8dd
8ccc
=124
8ccc
8bb
8aa
8gg#
8ee
8eee
=125
8eee
8ddd
8ccc#
8bb
8ee
8ddd
=126
8ddd
8ccc#
8bb
8aa#
8ff#
8fff#
=127
8fff#
8eee
8ddd
8ccc#
8ff#
8eee
=128
8ddd
8fff#
8ccc#
8bb
8ddd
8aa
=129
8gg
8bb
8ff#
8ee
8gg
8dd
=130
8cc#
8eee
8bb
8aa
8ccc#
8gg
=131
8ff#
8aa
8ee
8dd
8ff#
8cc#
=132
8b
8ddd
8aa
8gg
8bb
8ff#
=133
8ee
8gg
8dd
8cc#
8ee
8g
=134
8f#
8a
8d
8c#
8e
8A
=135
8d
8f#
8d
8B
8d
8G#
=136
8A
8c#
8e
8f#
8d
8g#
=137
8a
8c#
8e
8f#
8d
8g#
=138
2.a[
=139
8a]
8b
8g#
8a
8b
8g
=140
8f#
8d
8a
8g
8e
8a
=141
8f#
8d
8b
4a
8r
=142
2r
8r
8bb
=143
8aa
2r
8ddd
=144
8ccc
2r
8ccc
=145
8bb
2r
8bb
=146
8aa
2r
8aa
=147
8gg
2r
8aa
=148
8gg
2r
8gg
=149
8ff#
2r
8aa
=150
8aa
8gg
8ff#
8ee
8ee
8ee
=151
8ee
8ff#
8ee
8ee
8aa
8aa
=152
8aa
8gg
8ff#
8ee
8ee
8ee
=153
8ee
8ff#
8ee
4.ee[
=154
8ee]
8bb
8aa
4.aa[
=155
8aa]
8bb
8aa
4.aa[
=156
8aa]
8bb
8aa
4.aa
=157
2fff
8eee
8ddd
=158
8ccc#
8aaa
8aaa
4.aaa
=159
2fff
8eee
8ddd
=160
8ccc#
8aa
8aa
4aa
8r
=161
2ff
8ee
8dd
=162
8cc#
8aa
8aa
4.aa
=163
2ff
8ee
8dd
=164
2cc#
8aa
8bb-
=165
8gg#
8aa
8ee
8gg
8ff
8dd
=166
8cc#
8dd
8a
8b-
8a
8g#
=167
4.a
8b-
8a
8g#
=168
4.a
8b-
8a
8g#
=169
4.a
8b-
8a
8g#
=170
2.a[
=171
8a]
8cc
8b-
8b-
8dd
8cc
=172
2.cc[
=173
8cc]
8ff
8ff
8ff
8ee
8dd
=174
2.cc[
=175
8cc]
8dd
8dd
8dd
8cc
8b-
=176
4.a
8b-
8a
8b-
=177
4cc
2r
=178
4.a
8g
8a
8b-
=179
4.a
4.g
=180
4.f
8e
8f
8g
=181
4.f
4.e
=182
8d
8c#
8d
8f
8e
8d
=183
4c#
4.r
8aa
=184
8ff#
8dd
8aa
8gg
8ee
8aa
=185
8ff#
8dd
8bb
4aa
8f#
=186
8g
8bb
8bb
8c#
8gg
8gg
=187
8d
8ff#
8ff#
8g
8bb
8bb
=188
4.a
4.ee
=189
4dd
4.r
8aa
=190
8aa
8gg
8ff#
8ee
8ee
8ee
=191
8ee
8ff#
8ee
8ee
8aa
8aa
=192
8aa
8gg
8ff#
8ff#
8ee
8dd
=193
2dd
8aa
8aa
=194
8aa
8gg
8ff#
8ee
8ee
8ee
=195
8ee
8ff#
8ee
8ee
8aa
8aa
=196
8aa
8gg
8ff#
8ff#
8ee
8dd
=197
2dd
8ee
8cc#
=198
2dd
8gg
8ee
=199
8dd
8aa
8ff#
8dd
8a
8f#
=200
4d
2r
==
*-
